X:113
M:C|
L:1/8
K:F
f|cF F/F/F cFAF|cF F/F/F c2 Ac|BG G/G/G BGAG|BG G/G/G c2 A:|
e/f/g df e/f/g de|fgag fcd||
|:f|cFdF cFAf|cF F/F/F c2 Ac|BGdG BGAG|BG G/G/G c2A:|
e/f/g df e/f/g de|fgag fcd||

